X:23028
T:Will's Way
R:Polka
C:Will Ward 1979?
O:England
Z:Paul Hardy's Possible Tunebook 2015 (see www.paulhardy.net). Creative Commons cc by-nc-sa licenced.
M:4/4
L:1/8
Q:1/4=180
K:Dmix
"D"DEFG .A2 A2|"G"BA B2 "D"A4|DEFG A2 B2|"Am"c2 .B2 B2 A2|
"D"DEFG .A2 A2|"G"BA B2 "D"A4|DEFG "A"F2 E2|"D"D4 D4:|
"D"d2 .A2 AG F2|d2 .A2 A2 F2|DEFG A2 B2|"Am"c2 .B2 B2 A2|
"D"d2 .A2 AG F2|d2 .A2 AG F2|DEFG "A"F2 E2|"D"D4 D4:|

